icons/Color/scalable/gimp-close-all.svg

<svg height="16" viewBox="0 0 16 16" width="16" xmlns="http://www.w3.org/2000/svg" xmlns:xlink="http://www.w3.org/1999/xlink"><radialGradient id="a" cx="-6.007017" cy="32.837029" gradientTransform="matrix(.462962 0 0 .44272 14.86446 6.713194)" gradientUnits="userSpaceOnUse" r="9.90625"><stop offset="0" stop-color="#fce94f"/><stop offset="1" stop-color="#fce94f" stop-opacity="0"/></radialGradient><linearGradient id="b" gradientTransform="matrix(.462962 0 0 .466802 21.0145 5.928547)" gradientUnits="userSpaceOnUse" x1="-11.986486" x2="-11.986486" y1="13.122552" y2="29.726542"><stop offset="0" stop-color="#555753"/><stop offset="1" stop-color="#fcaf3e"/></linearGradient><linearGradient id="c" gradientTransform="matrix(.462962 0 0 .461866 4.347921 5.985305)" gradientUnits="userSpaceOnUse" x1="25.355263" x2="25.355263" y1="34.006802" y2="32.409008"><stop offset="0" stop-color="#2e3436"/><stop offset="1" stop-color="#2e3436" stop-opacity="0"/></linearGradient><path d="m5.734375 4.4101562 1.8964844 1.8046876a.90577965.90395022 2.7469447 1 1 -1.25 1.3085937l-2.3496094-2.2382813-1.6835938 1.7832032v6.3554686c0 .091734.0643656.166016.1425782.166016h11.0195316c.078212 0 .142578-.074282.142578-.166016v-8.8476561c0-.0917337-.064366-.1660157-.142578-.1660157z" fill="none" stroke="#888a85" stroke-linecap="round" stroke-linejoin="round" stroke-width=".75576" transform="matrix(1.00000001139 0 0 .99999998169 .00000017061 .00000006874)"/><g transform="matrix(.69701697744 0 0 .81945455767 -.77973470661 -2.84773386679)"><rect fill="url(#b)" height="11.203236" rx=".202546" ry=".202066" stroke="#888a85" stroke-linecap="round" stroke-linejoin="round" stroke-width=".999999" width="16.216183" x="7.357145" y="11.296763"/><path d="m11.79411 16.401215c-2.392951.151471-4.296871 2.150075-4.296871 4.575364 0 .09366.00889.181964.014468.274234h9.143509c.0056-.09227.01447-.180574.01447-.274234 0-2.523879-2.056354-4.575364-4.586223-4.575364-.09882 0-.192077-.0062-.289351 0z" fill="url(#a)" fill-rule="evenodd"/><path d="m7.588659 21.226898h15.740722v.923733h-15.740722z" fill="url(#c)"/><g fill-rule="evenodd"><path d="m18.031043 21.675958s-.257213-1.424098-.257213-2.296525c.0071-.39799 3.604954-3.498458 3.614237-3.960285l-.836462.727219-.585726-1.589717 1.974613.204118.925925-.923733-1.048689.768044-.360661-.08165-.4425-1.610129.22506 1.569306-1.63441-.08165.511509 1.29875-1.416971-1.400809 1.498813 1.949752c.000037.43486-2.954107 3.089518-2.949079 2.631777l-1.225207-1.639426-.102301-2.216308.925925-.263924.811179-1.99555-1.069313 1.844378-.834796-.03774-1.868696-1.574507-2.565841-.979767 2.192051 1.201894-1.757172.155689h2.314813l1.388887 1.385599.163681 2.393383-2.478493-2.393383 1.042268 1.250322-1.505231 1.05901 1.653439-.923733 2.615524 3.286696-.1023 2.242895h1.183137z"/><path d="m11.925565 18.563623c-1.305803.08266-2.344749 1.17327-2.344749 2.49672 0 .05111.00485.0993.00789.149646h4.989498c.003-.05035.0079-.09854.0079-.149646 0-1.377249-1.122129-2.49672-2.502647-2.49672-.05393 0-.104814-.0034-.157896 0z" fill="#fef39e"/><path d="m11.963041 19.163267c-.995873.06304-1.788226.894796-1.788226 1.904128 0 .03898.0037.07573.006.114127h3.805249c.0023-.0384.006-.07515.006-.114127 0-1.050362-.855793-1.904128-1.908647-1.904128-.04113 0-.07994-.0026-.12042 0z" fill="#fffbd7" fill-opacity=".556818"/></g></g><path d="m7.9238281 1.0175781a1.2480887 1.2480887 0 0 0 -1.2050781 1.2539063l.0253906 4.4804687-4.4785156-.0019531a1.2490235 1.2490235 0 1 0 0 2.4980469h4.4921875l.025391 4.4941411a1.2476247 1.2476247 0 0 0 2.1621094.861328 1.2476247 1.2476247 0 0 0 .3339844-.876954l-.025391-4.4785151h4.4804687a1.2477951 1.2477951 0 0 0 .900391-.3652344 1.2477951 1.2477951 0 0 0 -.900391-2.1289063l-4.4941406-.0019531-.0253906-4.4921875a1.2480887 1.2480887 0 0 0 -1.2910157-1.2421875z" stroke="#fff" stroke-linecap="round" stroke-width=".2" transform="matrix(-.524855022 -.49951833853 .50042304032 -.52370314251 4.19182500591 12.1901155203)"/></svg>

<?xml version="1.0" encoding="UTF-8" standalone="no"?>
<svg
   xmlns:dc="http://purl.org/dc/elements/1.1/"
   xmlns:cc="http://creativecommons.org/ns#"
   xmlns:rdf="http://www.w3.org/1999/02/22-rdf-syntax-ns#"
   xmlns:svg="http://www.w3.org/2000/svg"
   xmlns="http://www.w3.org/2000/svg"
   xmlns:xlink="http://www.w3.org/1999/xlink"
   xmlns:sodipodi="http://sodipodi.sourceforge.net/DTD/sodipodi-0.dtd"
   xmlns:inkscape="http://www.inkscape.org/namespaces/inkscape"
   width="16"
   height="16"
   viewBox="0 0 16 16"
   id="svg30571"
   version="1.1"
   inkscape:version="0.92pre1 unknown"
   sodipodi:docname="gimp-close-all.svg">
  <defs
     id="defs30573">
    <linearGradient
       inkscape:collect="always"
       id="linearGradient2065">
      <stop
         style="stop-color:#555753"
         offset="0"
         id="stop2067" />
      <stop
         style="stop-color:#fcaf3e"
         offset="1"
         id="stop2069" />
    </linearGradient>
    <linearGradient
       id="linearGradient4928">
      <stop
         id="stop4930"
         offset="0"
         style="stop-color:#fce94f;stop-opacity:1;" />
      <stop
         id="stop4932"
         offset="1"
         style="stop-color:#fce94f;stop-opacity:0;" />
    </linearGradient>
    <linearGradient
       inkscape:collect="always"
       id="linearGradient4616">
      <stop
         style="stop-color:#2e3436;stop-opacity:1;"
         offset="0"
         id="stop4618" />
      <stop
         style="stop-color:#2e3436;stop-opacity:0;"
         offset="1"
         id="stop4620" />
    </linearGradient>
    <radialGradient
       inkscape:collect="always"
       xlink:href="#linearGradient4928"
       id="radialGradient4915-6"
       cx="-6.0070167"
       cy="32.837029"
       fx="-6.0070167"
       fy="32.837029"
       r="9.90625"
       gradientTransform="matrix(0.462962,0,0,0.44272,14.86446,6.713194)"
       gradientUnits="userSpaceOnUse" />
    <linearGradient
       inkscape:collect="always"
       xlink:href="#linearGradient2065"
       id="linearGradient4045"
       gradientUnits="userSpaceOnUse"
       gradientTransform="matrix(0.462962,0,0,0.466802,21.0145,5.928547)"
       x1="-11.986486"
       y1="13.122552"
       x2="-11.986486"
       y2="29.726542" />
    <linearGradient
       inkscape:collect="always"
       xlink:href="#linearGradient4616"
       id="linearGradient4047"
       gradientUnits="userSpaceOnUse"
       gradientTransform="matrix(0.462962,0,0,0.461866,4.347921,5.985305)"
       x1="25.355263"
       y1="34.006802"
       x2="25.355263"
       y2="32.409008" />
  </defs>
  <sodipodi:namedview
     id="base"
     pagecolor="#ffffff"
     bordercolor="#666666"
     borderopacity="1"
     inkscape:pageopacity="0"
     inkscape:pageshadow="2"
     inkscape:zoom="21.73877"
     inkscape:cx="9.7343465"
     inkscape:cy="12.273932"
     inkscape:document-units="px"
     inkscape:current-layer="layer1"
     showgrid="true"
     units="px"
     inkscape:snap-page="true"
     inkscape:snap-bbox="true"
     inkscape:bbox-paths="true"
     inkscape:bbox-nodes="true"
     inkscape:snap-bbox-edge-midpoints="true"
     inkscape:snap-bbox-midpoints="true"
     inkscape:object-paths="true"
     inkscape:snap-intersection-paths="true"
     inkscape:object-nodes="true"
     inkscape:snap-smooth-nodes="true"
     inkscape:snap-midpoints="true"
     inkscape:snap-object-midpoints="true"
     inkscape:snap-center="true"
     inkscape:snap-text-baseline="true"
     showborder="false"
     inkscape:window-width="1920"
     inkscape:window-height="1016"
     inkscape:window-x="0"
     inkscape:window-y="27"
     inkscape:window-maximized="1"
     inkscape:snap-global="false"
     showguides="false">
    <inkscape:grid
       type="xygrid"
       id="grid4277" />
  </sodipodi:namedview>
  <metadata
     id="metadata30576">
    <rdf:RDF>
      <cc:Work
         rdf:about="">
        <dc:format>
          image/svg+xml
        </dc:format>
        <dc:type
           rdf:resource="http://purl.org/dc/dcmitype/StillImage" />
        <dc:creator>
          <cc:Agent>
            <dc:title>Klaus Staedtler       </dc:title>
          </cc:Agent>
        </dc:creator>
        <dc:title />
      </cc:Work>
    </rdf:RDF>
  </metadata>
  <g
     inkscape:label="Layer 1"
     inkscape:groupmode="layer"
     id="layer1"
     transform="translate(0,-1036.3622)">
    <g
       id="g4335">
      <g
         transform="matrix(1.0019641,0,0,1.024312,0.00852164,-24.307233)"
         id="g3976-3-4">
        <g
           transform="matrix(0.69565065,0,0,0.80000484,24.148475,1040.5518)"
           id="g4028-9-9">
          <g
             transform="translate(-38.71351,-12.237062)"
             id="g2403-3-0">
            <path
               id="rect2063-4-2"
               transform="matrix(1.4346853,0,0,1.2203239,3.9877753,5.9154639)"
               d="M 5.734375 4.4101562 L 7.6308594 6.2148438 A 0.90577965 0.90395022 2.7469447 1 1 6.3808594 7.5234375 L 4.03125 5.2851562 L 2.3476562 7.0683594 L 2.3476562 13.423828 C 2.3476562 13.515562 2.4120218 13.589844 2.4902344 13.589844 L 13.509766 13.589844 C 13.587978 13.589844 13.652344 13.515562 13.652344 13.423828 L 13.652344 4.5761719 C 13.652344 4.4844382 13.587978 4.4101562 13.509766 4.4101562 L 5.734375 4.4101562 z "
               style="opacity:1;fill:none;fill-opacity:1;stroke:#888a85;stroke-width:0.75575954;stroke-linecap:round;stroke-linejoin:round;stroke-miterlimit:4;stroke-dasharray:none;stroke-dashoffset:0;stroke-opacity:1" />
          </g>
        </g>
      </g>
      <g
         transform="matrix(0.99999942,0,0,1.0000436,1.627693e-6,-0.04588736)"
         id="g4138" />
      <g
         transform="matrix(1.0019641,0,0,1.024312,2.0083336,-22.307513)"
         id="g3976-3">
        <g
           transform="matrix(0.69565065,0,0,0.80000484,24.148475,1040.5518)"
           id="g4028-9">
          <g
             transform="translate(-38.71351,-12.237062)"
             id="g2403-3">
            <g
               id="g3799-7"
               transform="matrix(0.557846,0,0,0.461866,-85.36183,64.50698)"
               inkscape:r_cx="true"
               inkscape:r_cy="true"
               style="opacity:0.58241763" />
            <rect
               style="opacity:1;fill:url(#linearGradient4045);fill-opacity:1;stroke:#888a85;stroke-width:0.99999893;stroke-linecap:round;stroke-linejoin:round;stroke-miterlimit:4;stroke-dasharray:none;stroke-dashoffset:0;stroke-opacity:1"
               id="rect2063-4"
               width="16.216183"
               height="11.203236"
               x="7.3571453"
               y="11.296763"
               rx="0.20254599"
               ry="0.20206636" />
            <path
               style="color:#000000;display:inline;overflow:visible;visibility:visible;opacity:1;fill:url(#radialGradient4915-6);fill-opacity:1;fill-rule:evenodd;stroke:none;stroke-width:1;stroke-linecap:round;stroke-linejoin:round;stroke-miterlimit:4;stroke-dasharray:none;stroke-dashoffset:0;stroke-opacity:1;marker:none;marker-start:none;marker-mid:none;marker-end:none"
               d="m 11.79411,16.401215 c -2.392951,0.151471 -4.296871,2.150075 -4.296871,4.575364 0,0.09366 0.00889,0.181964 0.014468,0.274234 h 9.143509 c 0.0056,-0.09227 0.01447,-0.180574 0.01447,-0.274234 0,-2.523879 -2.056354,-4.575364 -4.586223,-4.575364 -0.09882,0 -0.192077,-0.0062 -0.289351,0 z"
               id="path4898-0"
               inkscape:r_cx="true"
               inkscape:r_cy="true"
               inkscape:connector-curvature="0" />
            <rect
               style="opacity:1;fill:url(#linearGradient4047);fill-opacity:1;stroke:none;stroke-width:1;stroke-linecap:round;stroke-linejoin:round;stroke-miterlimit:4;stroke-dasharray:none;stroke-dashoffset:0;stroke-opacity:1"
               id="rect1324-7"
               width="15.740722"
               height="0.92373294"
               x="7.5886593"
               y="21.226898"
               rx="0"
               ry="0" />
            <path
               style="fill:#000000;fill-opacity:1;fill-rule:evenodd;stroke:none;stroke-width:1px;stroke-linecap:butt;stroke-linejoin:miter;stroke-opacity:1"
               d="m 18.031043,21.675958 c 0,0 -0.257213,-1.424098 -0.257213,-2.296525 0.0071,-0.39799 3.604954,-3.498458 3.614237,-3.960285 l -0.836462,0.727219 -0.585726,-1.589717 1.974613,0.204118 0.925925,-0.923733 -1.048689,0.768044 -0.360661,-0.08165 -0.4425,-1.610129 0.22506,1.569306 -1.63441,-0.08165 0.511509,1.29875 -1.416971,-1.400809 1.498813,1.949752 c 3.7e-5,0.43486 -2.954107,3.089518 -2.949079,2.631777 L 16.024282,17.241 l -0.102301,-2.216308 0.925925,-0.263924 0.811179,-1.99555 -1.069313,1.844378 -0.834796,-0.03774 -1.868696,-1.574507 -2.565841,-0.979767 2.192051,1.201894 -1.757172,0.155689 h 2.314813 l 1.388887,1.385599 0.163681,2.393383 -2.478493,-2.393383 1.042268,1.250322 -1.505231,1.05901 1.653439,-0.923733 2.615524,3.286696 -0.1023,2.242895 h 1.183137 z"
               id="path2079-2"
               sodipodi:nodetypes="cccccccccccccccccccccccccccccccccccc"
               inkscape:connector-curvature="0" />
            <path
               inkscape:r_cy="true"
               inkscape:r_cx="true"
               id="path4924-8"
               d="m 11.925565,18.563623 c -1.305803,0.08266 -2.344749,1.17327 -2.344749,2.49672 0,0.05111 0.00485,0.0993 0.00789,0.149646 h 4.989498 c 0.003,-0.05035 0.0079,-0.09854 0.0079,-0.149646 0,-1.377249 -1.122129,-2.49672 -2.502647,-2.49672 -0.05393,0 -0.104814,-0.0034 -0.157896,0 z"
               style="color:#000000;display:inline;overflow:visible;visibility:visible;opacity:1;fill:#fef39e;fill-opacity:1;fill-rule:evenodd;stroke:none;stroke-width:1;stroke-linecap:round;stroke-linejoin:round;stroke-miterlimit:4;stroke-dasharray:none;stroke-dashoffset:0;stroke-opacity:1;marker:none;marker-start:none;marker-mid:none;marker-end:none"
               inkscape:connector-curvature="0" />
            <path
               style="color:#000000;display:inline;overflow:visible;visibility:visible;opacity:1;fill:#fffbd7;fill-opacity:0.55681817;fill-rule:evenodd;stroke:none;stroke-width:1;stroke-linecap:round;stroke-linejoin:round;stroke-miterlimit:4;stroke-dasharray:none;stroke-dashoffset:0;stroke-opacity:1;marker:none;marker-start:none;marker-mid:none;marker-end:none"
               d="m 11.963041,19.163267 c -0.995873,0.06304 -1.788226,0.894796 -1.788226,1.904128 0,0.03898 0.0037,0.07573 0.006,0.114127 h 3.805249 c 0.0023,-0.0384 0.006,-0.07515 0.006,-0.114127 0,-1.050362 -0.855793,-1.904128 -1.908647,-1.904128 -0.04113,0 -0.07994,-0.0026 -0.12042,0 z"
               id="path4926-6"
               inkscape:r_cx="true"
               inkscape:r_cy="true"
               inkscape:connector-curvature="0" />
          </g>
        </g>
      </g>
      <g
         transform="matrix(0.97708844,-0.02572862,0.02596958,0.97512904,8.7509474,45.595332)"
         id="g7082">
        <g
           id="g7078" />
      </g>
      <g
         transform="matrix(0.97708844,-0.02572862,0.02596958,0.97512904,8.7509474,45.595332)"
         id="g7082-7">
        <path
           inkscape:connector-curvature="0"
           id="path6388-7-7-4-7"
           transform="matrix(-0.52318027,-0.52606273,0.52606273,-0.52318027,-31.980627,1027.6939)"
           d="M 7.9238281,1.0175781 A 1.2480887,1.2480887 0 0 0 6.71875,2.2714844 L 6.7441406,6.7519531 2.265625,6.75 a 1.2490235,1.2490235 0 1 0 0,2.4980469 h 4.4921875 l 0.025391,4.4941411 a 1.2476247,1.2476247 0 0 0 2.1621094,0.861328 1.2476247,1.2476247 0 0 0 0.3339844,-0.876954 L 9.2539063,9.2480469 H 13.734375 A 1.2477951,1.2477951 0 0 0 14.634766,8.8828125 1.2477951,1.2477951 0 0 0 13.734375,6.7539062 L 9.2402344,6.7519531 9.2148438,2.2597656 A 1.2480887,1.2480887 0 0 0 7.9238281,1.0175781 Z"
           style="color:#000000;font-style:normal;font-variant:normal;font-weight:normal;font-stretch:normal;font-size:medium;line-height:normal;font-family:sans-serif;text-indent:0;text-align:start;text-decoration:none;text-decoration-line:none;text-decoration-style:solid;text-decoration-color:#000000;letter-spacing:normal;word-spacing:normal;text-transform:none;writing-mode:lr-tb;direction:ltr;baseline-shift:baseline;text-anchor:start;white-space:normal;clip-rule:nonzero;display:inline;overflow:visible;visibility:visible;opacity:1;isolation:auto;mix-blend-mode:normal;color-interpolation:sRGB;color-interpolation-filters:linearRGB;solid-color:#000000;solid-opacity:1;fill:#000000;fill-opacity:1;fill-rule:nonzero;stroke:#ffffff;stroke-width:0.2;stroke-linecap:round;stroke-linejoin:miter;stroke-miterlimit:4;stroke-dasharray:none;stroke-dashoffset:0;stroke-opacity:1;color-rendering:auto;image-rendering:auto;shape-rendering:auto;text-rendering:auto;enable-background:accumulate" />
        <g
           id="g7078-1" />
      </g>
    </g>
  </g>
</svg>
